; generated by PrusaSlicer 2.5.2+win64 on 2023-05-24 at 17:34:06 UTC


;
;

;
;
; 

; external perimeters extrusion width = 0.45mm
; perimeters extrusion width = 0.45mm
; infill extrusion width = 0.45mm
; solid infill extrusion width = 0.45mm
; top infill extrusion width = 0.40mm
; support material extrusion width = 0.35mm
; first layer extrusion width = 0.42mm

; external perimeters extrusion width = 0.45mm
; perimeters extrusion width = 0.45mm
; infill extrusion width = 0.45mm
; solid infill extrusion width = 0.45mm
; top infill extrusion width = 0.40mm
; support material extrusion width = 0.35mm
; first layer extrusion width = 0.42mm

M73 P0 R161
M201 X2500 Y2500 Z400 E5000 ; sets maximum accelerations, mm/sec^2
M203 X180 Y180 Z12 E80 ; sets maximum feedrates, mm / sec
M204 P1250 R1250 T2500 ; sets acceleration (P, T) and retract acceleration (R), mm/sec^2
M205 X8.00 Y8.00 Z2.00 E10.00 ; sets the jerk limits, mm/sec
M205 S0 T0 ; sets the minimum extruding and travel feed rate, mm/sec
M107
;TYPE:Custom
M862.3 P "MINI" ; printer model check
G90 ; use absolute coordinates
M83 ; extruder relative mode
M104 S170 ; set extruder temp for bed leveling
M140 S85 ; set bed temp
M109 R170 ; wait for bed leveling temp
M190 S85 ; wait for bed temp
M204 T1250 ; set travel acceleration
G28 ; home all without mesh bed level
G29 ; mesh bed leveling 
M204 T2500 ; restore travel acceleration
M104 S230 ; set extruder temp
G92 E0
G1 Y-2 X179 F2400
G1 Z3 F720
M109 S230 ; wait for extruder temp

; intro line
G1 X170 F1000
G1 Z0.2 F720
G1 X110 E8 F900
G1 X40 E10 F700
G92 E0

M221 S95 ; set flow
G21 ; set units to millimeters
G90 ; use absolute coordinates
M83 ; use relative distances for extrusion
M900 K0.2 ; Filament gcode
M107
;LAYER_CHANGE
;Z:0.2
;HEIGHT:0.2
;BEFORE_LAYER_CHANGE
G92 E0.0
;0.2


M73 P0 R160
G1 E-3.2 F2700
G1 Z.2 F720
;AFTER_LAYER_CHANGE
;0.2
G1 Z.4
G1 X52.382 Y35.142 F9000
G1 Z.2 F720
G1 E3.2 F1500
M204 P800
;TYPE:Skirt/Brim
;WIDTH:0.42
G1 F1200
G1 X53.375 Y34.206 E.04278
G1 X54.439 Y33.955 E.03428
G1 X139.439 Y33.955 E2.66512
G1 X140.746 Y34.347 E.04278
G1 X141.623 Y35.392 E.04278
G1 X141.816 Y36.332 E.03008
G1 X141.816 Y106.168 E2.18966
G1 X141.253 Y107.705 E.05132
G1 X108.599 Y146.241 E1.58371
G1 X107.538 Y146.959 E.0402
G1 X100.616 Y149.266 E.22875
G1 X99.865 Y149.388 E.02388
G1 X80.135 Y149.388 E.6186
G1 X79.384 Y149.266 E.02388
G1 X72.462 Y146.959 E.22875
G1 X71.11 Y145.809 E.05567
G1 X36.504 Y79.913 E2.33372
G1 X36.231 Y78.808 E.03569
G1 X36.231 Y63.692 E.47393
G1 X36.551 Y62.502 E.03865
G1 X52.352 Y35.193 E.98924
M204 P1000
; printing object Skuff v3.stl id:0 copy 0
G1 E-2.24 F2700
;WIPE_START
G1 F7200
G1 X53.375 Y34.206 E-.50659
G1 X54.439 Y33.955 E-.38947
G1 X54.484 Y33.955 E-.01594
;WIPE_END
G1 E-.048 F2700
G1 Z.4 F720
G1 X53.959 Y81.115 F9000
G1 Z.2 F720
G1 E3.2 F1500
M204 P800
;TYPE:Support material
G1 F1200
G1 X40.915 Y81.115 E.40899
G1 X40.915 Y78.808 E.07234
G1 X38.608 Y78.808 E.07234
G1 X38.608 Y63.692 E.47393
G1 X40.915 Y63.692 E.07234
G1 X40.915 Y61.385 E.07234
G1 X53.959 Y61.385 E.40899
G1 X53.959 Y81.058 E.61683
M204 P1000
G1 X53.549 Y80.945 F9000
M204 P800
G1 F1200
G1 X53.549 Y61.725 E.60264
G1 X53.13 Y61.725 E.01314
G1 X53.13 Y80.775 E.59732
G1 X52.711 Y80.775 E.01314
G1 X52.711 Y61.725 E.59732
G1 X52.292 Y61.725 E.01314
G1 X52.292 Y80.775 E.59732
G1 X51.873 Y80.775 E.01314
G1 X51.873 Y61.725 E.59732
G1 X51.454 Y61.725 E.01314
G1 X51.454 Y80.775 E.59732
G1 X51.035 Y80.775 E.01314
G1 X51.035 Y61.725 E.59732
G1 X50.616 Y61.725 E.01314
G1 X50.616 Y80.775 E.59732
G1 X50.197 Y80.775 E.01314
G1 X50.197 Y61.725 E.59732
G1 X49.778 Y61.725 E.01314
G1 X49.778 Y80.775 E.59732
G1 X49.359 Y80.775 E.01314
G1 X49.359 Y61.725 E.59732
G1 X48.94 Y61.725 E.01314
G1 X48.94 Y80.775 E.59732
G1 X48.521 Y80.775 E.01314
G1 X48.521 Y61.725 E.59732
G1 X48.102 Y61.725 E.01314
G1 X48.102 Y80.775 E.59732
G1 X47.683 Y80.775 E.01314
G1 X47.683 Y61.725 E.59732
G1 X47.264 Y61.725 E.01314
G1 X47.264 Y80.775 E.59732
G1 X46.846 Y80.775 E.01314
G1 X46.846 Y61.725 E.59732
G1 X46.427 Y61.725 E.01314
G1 X46.427 Y80.775 E.59732
G1 X46.008 Y80.775 E.01314
G1 X46.008 Y61.725 E.59732
G1 X45.589 Y61.725 E.01314
G1 X45.589 Y80.775 E.59732
G1 X45.17 Y80.775 E.01314
G1 X45.17 Y61.725 E.59732
G1 X44.751 Y61.725 E.01314
G1 X44.751 Y80.775 E.59732
G1 X44.332 Y80.775 E.01314
G1 X44.332 Y61.725 E.59732
G1 X43.913 Y61.725 E.01314
G1 X43.913 Y80.775 E.59732
G1 X43.494 Y80.775 E.01314
G1 X43.494 Y61.725 E.59732
G1 X43.075 Y61.725 E.01314
G1 X43.075 Y80.775 E.59732
G1 X42.656 Y80.775 E.01314
G1 X42.656 Y61.725 E.59732
G1 X42.237 Y61.725 E.01314
M73 P0 R159
G1 X42.237 Y80.775 E.59732
G1 X41.818 Y80.775 E.01314
G1 X41.818 Y61.725 E.59732
G1 X41.399 Y61.725 E.01314
G1 X41.399 Y80.775 E.59732
G1 X41.254 Y80.775 E.00453
G1 X41.254 Y78.468 E.07234
G1 X40.98 Y78.468 E.00861
G1 X40.98 Y64.032 E.45265
G1 X40.561 Y64.032 E.01314
G1 X40.561 Y78.468 E.45265
G1 X40.142 Y78.468 E.01314
G1 X40.142 Y64.032 E.45265
G1 X39.723 Y64.032 E.01314
G1 X39.723 Y78.468 E.45265
G1 X39.304 Y78.468 E.01314
G1 X39.304 Y63.862 E.45797
M204 P1000
G1 E-2.24 F2700
;WIPE_START
G1 F7200
G1 X39.304 Y66.422 E-.912
;WIPE_END
G1 E-.048 F2700
G1 Z.4 F720
G1 X55.226 Y37.119 F9000
G1 Z.2 F720
G1 E3.2 F1500
M204 P800
;TYPE:Perimeter
;WIDTH:0.419999
G1 F1200
G1 X138.652 Y37.119 E2.61575
G1 X138.652 Y105.381 E2.1403
G1 X55.226 Y105.381 E2.61575
G1 X55.226 Y37.179 E2.13842
M204 P1000
G1 X54.849 Y36.742 F9000
M204 P800
;TYPE:External perimeter
G1 F1200
G1 X139.029 Y36.742 E2.6394
G1 X139.029 Y105.758 E2.16394
G1 X54.849 Y105.758 E2.6394
G1 X54.849 Y36.802 E2.16206
M204 P1000
M73 P1 R159
G1 X55.239 Y36.833 F9000
G1 E-2.24 F2700
;WIPE_START
G1 F7200
G1 X57.409 Y36.8 E-.912
;WIPE_END
G1 E-.048 F2700
G1 Z.4 F720
G1 X137.775 Y37.232 F9000
G1 Z.2 F720
G1 E3.2 F1500
M204 P800
;TYPE:Solid infill
;WIDTH:0.420986
G1 F1200
G1 X138.369 Y37.827 E.02644
G1 X138.369 Y38.362 E.01681
G1 X137.41 Y37.402 E.04266
G1 X136.875 Y37.402 E.01681
G1 X138.369 Y38.896 E.06643
G1 X138.369 Y39.431 E.01681
G1 X136.34 Y37.402 E.0902
G1 X135.806 Y37.402 E.01681
G1 X138.369 Y39.966 E.11397
G1 X138.369 Y40.5 E.01681
G1 X135.271 Y37.402 E.13774
G1 X134.736 Y37.402 E.01681
G1 X138.369 Y41.035 E.16151
G1 X138.369 Y41.57 E.01681
G1 X134.202 Y37.402 E.18528
G1 X133.667 Y37.402 E.01681
G1 X138.369 Y42.104 E.20905
G1 X138.369 Y42.639 E.01681
G1 X133.132 Y37.402 E.23282
G1 X132.598 Y37.402 E.01681
G1 X138.369 Y43.174 E.25659
G1 X138.369 Y43.708 E.01681
G1 X132.063 Y37.402 E.28036
G1 X131.528 Y37.402 E.01681
G1 X138.369 Y44.243 E.30413
G1 X138.369 Y44.778 E.01681
G1 X130.994 Y37.402 E.3279
G1 X130.459 Y37.402 E.01681
G1 X138.369 Y45.312 E.35167
G1 X138.369 Y45.847 E.01681
G1 X129.924 Y37.402 E.37544
G1 X129.39 Y37.402 E.01681
G1 X138.369 Y46.382 E.39921
G1 X138.369 Y46.916 E.01681
G1 X128.855 Y37.402 E.42298
G1 X128.32 Y37.402 E.01681
G1 X138.369 Y47.451 E.44675
G1 X138.369 Y47.986 E.01681
G1 X127.786 Y37.402 E.47052
G1 X127.251 Y37.402 E.01681
G1 X138.369 Y48.52 E.49429
G1 X138.369 Y49.055 E.01681
G1 X126.716 Y37.402 E.51806
G1 X126.182 Y37.402 E.01681
G1 X138.369 Y49.59 E.54183
G1 X138.369 Y50.124 E.01681
G1 X125.647 Y37.402 E.5656
G1 X125.112 Y37.402 E.01681
G1 X138.369 Y50.659 E.58937
G1 X138.369 Y51.194 E.01681
G1 X124.578 Y37.402 E.61314
G1 X124.043 Y37.402 E.01681
G1 X138.369 Y51.728 E.63691
G1 X138.369 Y52.263 E.01681
G1 X123.508 Y37.402 E.66068
G1 X122.974 Y37.402 E.01681
G1 X138.369 Y52.798 E.68445
G1 X138.369 Y53.332 E.01681
G1 X122.439 Y37.402 E.70822
G1 X121.904 Y37.402 E.01681
G1 X138.369 Y53.867 E.73199
G1 X138.369 Y54.402 E.01681
G1 X121.37 Y37.402 E.75576
G1 X120.835 Y37.402 E.01681
M73 P1 R158
G1 X138.369 Y54.936 E.77953
G1 X138.369 Y55.471 E.01681
G1 X120.3 Y37.402 E.8033
G1 X119.766 Y37.402 E.01681
G1 X138.369 Y56.006 E.82707
G1 X138.369 Y56.54 E.01681
G1 X119.231 Y37.402 E.85084
G1 X118.696 Y37.402 E.01681
G1 X138.369 Y57.075 E.87461
G1 X138.369 Y57.61 E.01681
G1 X118.162 Y37.402 E.89838
G1 X117.627 Y37.402 E.01681
G1 X138.369 Y58.144 E.92215
G1 X138.369 Y58.679 E.01681
G1 X117.092 Y37.402 E.94592
G1 X116.558 Y37.402 E.01681
G1 X138.369 Y59.214 E.96969
G1 X138.369 Y59.748 E.01681
G1 X116.023 Y37.402 E.99346
G1 X115.488 Y37.402 E.01681
G1 X138.369 Y60.283 E1.01723
G1 X138.369 Y60.818 E.01681
G1 X114.954 Y37.402 E1.041
G1 X114.419 Y37.402 E.01681
G1 X138.369 Y61.352 E1.06477
G1 X138.369 Y61.887 E.01681
G1 X113.884 Y37.402 E1.08854
G1 X113.35 Y37.402 E.01681
G1 X138.369 Y62.422 E1.11231
G1 X138.369 Y62.956 E.01681
G1 X112.815 Y37.402 E1.13608
G1 X112.281 Y37.402 E.01681
G1 X138.369 Y63.491 E1.15985
G1 X138.369 Y64.026 E.01681
G1 X111.746 Y37.402 E1.18362
G1 X111.211 Y37.402 E.01681
G1 X138.369 Y64.56 E1.20739
G1 X138.369 Y65.095 E.01681
G1 X110.677 Y37.402 E1.23116
G1 X110.142 Y37.402 E.01681
G1 X138.369 Y65.63 E1.25493
G1 X138.369 Y66.164 E.01681
G1 X109.607 Y37.402 E1.2787
G1 X109.073 Y37.402 E.01681
G1 X138.369 Y66.699 E1.30247
G1 X138.369 Y67.234 E.01681
G1 X108.538 Y37.402 E1.32624
G1 X108.003 Y37.402 E.01681
G1 X138.369 Y67.768 E1.35001
G1 X138.369 Y68.303 E.01681
G1 X107.469 Y37.402 E1.37378
G1 X106.934 Y37.402 E.01681
G1 X138.369 Y68.838 E1.39755
G1 X138.369 Y69.372 E.01681
G1 X106.399 Y37.402 E1.42132
G1 X105.865 Y37.402 E.01681
G1 X138.369 Y69.907 E1.44509
G1 X138.369 Y70.441 E.01681
G1 X105.33 Y37.402 E1.46886
G1 X104.795 Y37.402 E.01681
G1 X138.369 Y70.976 E1.49263
G1 X138.369 Y71.511 E.01681
G1 X104.261 Y37.402 E1.5164
G1 X103.726 Y37.402 E.01681
G1 X138.369 Y72.045 E1.54017
G1 X138.369 Y72.58 E.01681
M73 P1 R157
G1 X103.191 Y37.402 E1.56394
G1 X102.657 Y37.402 E.01681
G1 X138.369 Y73.115 E1.58771
G1 X138.369 Y73.649 E.01681
M73 P2 R157
G1 X102.122 Y37.402 E1.61148
G1 X101.587 Y37.402 E.01681
G1 X138.369 Y74.184 E1.63525
G1 X138.369 Y74.719 E.01681
G1 X101.053 Y37.402 E1.65902
G1 X100.518 Y37.402 E.01681
G1 X138.369 Y75.253 E1.68279
G1 X138.369 Y75.788 E.01681
G1 X99.983 Y37.402 E1.70656
G1 X99.449 Y37.402 E.01681
G1 X138.369 Y76.323 E1.73033
G1 X138.369 Y76.857 E.01681
G1 X98.914 Y37.402 E1.7541
G1 X98.379 Y37.402 E.01681
G1 X138.369 Y77.392 E1.77787
G1 X138.369 Y77.927 E.01681
G1 X97.845 Y37.402 E1.80164
G1 X97.31 Y37.402 E.01681
G1 X138.369 Y78.461 E1.82541
G1 X138.369 Y78.996 E.01681
G1 X96.775 Y37.402 E1.84918
G1 X96.241 Y37.402 E.01681
G1 X138.369 Y79.531 E1.87295
G1 X138.369 Y80.065 E.01681
G1 X95.706 Y37.402 E1.89672
G1 X95.171 Y37.402 E.01681
G1 X138.369 Y80.6 E1.92049
G1 X138.369 Y81.135 E.01681
G1 X94.637 Y37.402 E1.94426
G1 X94.102 Y37.402 E.01681
G1 X138.369 Y81.669 E1.96803
G1 X138.369 Y82.204 E.01681
G1 X93.567 Y37.402 E1.9918
G1 X93.033 Y37.402 E.01681
G1 X138.369 Y82.739 E2.01557
G1 X138.369 Y83.273 E.01681
M73 P2 R156
G1 X92.498 Y37.402 E2.03934
G1 X91.963 Y37.402 E.01681
G1 X138.369 Y83.808 E2.06311
G1 X138.369 Y84.343 E.01681
G1 X91.429 Y37.402 E2.08688
G1 X90.894 Y37.402 E.01681
G1 X138.369 Y84.877 E2.11065
G1 X138.369 Y85.412 E.01681
G1 X90.359 Y37.402 E2.13442
G1 X89.825 Y37.402 E.01681
G1 X138.369 Y85.947 E2.15819
G1 X138.369 Y86.481 E.01681
G1 X89.29 Y37.402 E2.18196
G1 X88.755 Y37.402 E.01681
G1 X138.369 Y87.016 E2.20573
G1 X138.369 Y87.551 E.01681
G1 X88.221 Y37.402 E2.2295
G1 X87.686 Y37.402 E.01681
G1 X138.369 Y88.085 E2.25327
G1 X138.369 Y88.62 E.01681
G1 X87.151 Y37.402 E2.27704
G1 X86.617 Y37.402 E.01681
G1 X138.369 Y89.155 E2.30081
G1 X138.369 Y89.689 E.01681
G1 X86.082 Y37.402 E2.32458
G1 X85.547 Y37.402 E.01681
M73 P3 R156
G1 X138.369 Y90.224 E2.34835
G1 X138.369 Y90.759 E.01681
G1 X85.013 Y37.402 E2.37212
G1 X84.478 Y37.402 E.01681
G1 X138.369 Y91.293 E2.39589
G1 X138.369 Y91.828 E.01681
G1 X83.943 Y37.402 E2.41966
G1 X83.409 Y37.402 E.01681
M73 P3 R155
G1 X138.369 Y92.363 E2.44343
G1 X138.369 Y92.897 E.01681
G1 X82.874 Y37.402 E2.4672
G1 X82.339 Y37.402 E.01681
G1 X138.369 Y93.432 E2.49097
G1 X138.369 Y93.967 E.01681
G1 X81.805 Y37.402 E2.51474
G1 X81.27 Y37.402 E.01681
G1 X138.369 Y94.501 E2.53851
G1 X138.369 Y95.036 E.01681
G1 X80.735 Y37.402 E2.56228
G1 X80.201 Y37.402 E.01681
G1 X138.369 Y95.571 E2.58605
G1 X138.369 Y96.105 E.01681
G1 X79.666 Y37.402 E2.60982
G1 X79.131 Y37.402 E.01681
G1 X138.369 Y96.64 E2.63359
G1 X138.369 Y97.175 E.01681
G1 X78.597 Y37.402 E2.65736
G1 X78.062 Y37.402 E.01681
G1 X138.369 Y97.709 E2.68113
G1 X138.369 Y98.244 E.01681
G1 X77.527 Y37.402 E2.7049
G1 X76.993 Y37.402 E.01681
G1 X138.369 Y98.779 E2.72867
G1 X138.369 Y99.313 E.01681
G1 X76.458 Y37.402 E2.75244
G1 X75.923 Y37.402 E.01681
G1 X138.369 Y99.848 E2.77621
G1 X138.369 Y100.383 E.01681
M73 P3 R154
G1 X75.389 Y37.402 E2.79998
G1 X74.854 Y37.402 E.01681
G1 X138.369 Y100.917 E2.82375
G1 X138.369 Y101.452 E.01681
G1 X74.319 Y37.402 E2.84752
G1 X73.785 Y37.402 E.01681
G1 X138.369 Y101.987 E2.87129
G1 X138.369 Y102.521 E.01681
M73 P4 R154
G1 X73.25 Y37.402 E2.89506
G1 X72.715 Y37.402 E.01681
G1 X138.369 Y103.056 E2.91883
G1 X138.369 Y103.591 E.01681
G1 X72.181 Y37.402 E2.9426
G1 X71.646 Y37.402 E.01681
G1 X138.369 Y104.125 E2.96637
G1 X138.369 Y104.66 E.01681
G1 X71.111 Y37.402 E2.99014
G1 X70.577 Y37.402 E.01681
G1 X138.273 Y105.098 E3.00962
G1 X137.738 Y105.098 E.01681
G1 X70.042 Y37.402 E3.00962
G1 X69.507 Y37.402 E.01681
G1 X137.203 Y105.098 E3.00962
G1 X136.669 Y105.098 E.01681
M73 P4 R153
G1 X68.973 Y37.402 E3.00962
G1 X68.438 Y37.402 E.01681
G1 X136.134 Y105.098 E3.00962
G1 X135.599 Y105.098 E.01681
G1 X67.903 Y37.402 E3.00962
G1 X67.369 Y37.402 E.01681
G1 X135.065 Y105.098 E3.00962
G1 X134.53 Y105.098 E.01681
G1 X66.834 Y37.402 E3.00962
G1 X66.299 Y37.402 E.01681
G1 X133.995 Y105.098 E3.00962
G1 X133.461 Y105.098 E.01681
G1 X65.765 Y37.402 E3.00962
G1 X65.23 Y37.402 E.01681
G1 X132.926 Y105.098 E3.00962
G1 X132.391 Y105.098 E.01681
G1 X64.695 Y37.402 E3.00962
G1 X64.161 Y37.402 E.01681
G1 X131.857 Y105.098 E3.00962
G1 X131.322 Y105.098 E.01681
G1 X63.626 Y37.402 E3.00962
G1 X63.091 Y37.402 E.01681
G1 X130.787 Y105.098 E3.00962
G1 X130.253 Y105.098 E.01681
M73 P5 R153
G1 X62.557 Y37.402 E3.00962
G1 X62.022 Y37.402 E.01681
M73 P5 R152
G1 X129.718 Y105.098 E3.00962
G1 X129.183 Y105.098 E.01681
G1 X61.487 Y37.402 E3.00962
G1 X60.953 Y37.402 E.01681
G1 X128.649 Y105.098 E3.00962
G1 X128.114 Y105.098 E.01681
G1 X60.418 Y37.402 E3.00962
G1 X59.883 Y37.402 E.01681
G1 X127.579 Y105.098 E3.00962
G1 X127.045 Y105.098 E.01681
G1 X59.349 Y37.402 E3.00962
G1 X58.814 Y37.402 E.01681
G1 X126.51 Y105.098 E3.00962
G1 X125.975 Y105.098 E.01681
G1 X58.279 Y37.402 E3.00962
G1 X57.745 Y37.402 E.01681
G1 X125.441 Y105.098 E3.00962
G1 X124.906 Y105.098 E.01681
G1 X57.21 Y37.402 E3.00962
G1 X56.675 Y37.402 E.01681
G1 X124.371 Y105.098 E3.00962
G1 X123.837 Y105.098 E.01681
G1 X56.141 Y37.402 E3.00962
G1 X55.606 Y37.402 E.01681
M73 P5 R151
G1 X123.302 Y105.098 E3.00962
G1 X122.767 Y105.098 E.01681
G1 X55.509 Y37.84 E2.99015
G1 X55.509 Y38.375 E.01681
G1 X122.233 Y105.098 E2.96638
G1 X121.698 Y105.098 E.01681
G1 X55.509 Y38.909 E2.94261
G1 X55.509 Y39.444 E.01681
G1 X121.163 Y105.098 E2.91884
G1 X120.629 Y105.098 E.01681
G1 X55.509 Y39.979 E2.89507
G1 X55.509 Y40.513 E.01681
G1 X120.094 Y105.098 E2.8713
G1 X119.559 Y105.098 E.01681
G1 X55.509 Y41.048 E2.84753
M73 P6 R151
G1 X55.509 Y41.583 E.01681
G1 X119.025 Y105.098 E2.82376
G1 X118.49 Y105.098 E.01681
G1 X55.509 Y42.117 E2.79999
G1 X55.509 Y42.652 E.01681
G1 X117.955 Y105.098 E2.77622
G1 X117.421 Y105.098 E.01681
G1 X55.509 Y43.187 E2.75245
G1 X55.509 Y43.721 E.01681
G1 X116.886 Y105.098 E2.72868
G1 X116.351 Y105.098 E.01681
M73 P6 R150
G1 X55.509 Y44.256 E2.70491
G1 X55.509 Y44.791 E.01681
G1 X115.817 Y105.098 E2.68114
G1 X115.282 Y105.098 E.01681
G1 X55.509 Y45.325 E2.65737
G1 X55.509 Y45.86 E.01681
G1 X114.747 Y105.098 E2.6336
G1 X114.213 Y105.098 E.01681
G1 X55.509 Y46.395 E2.60983
G1 X55.509 Y46.929 E.01681
G1 X113.678 Y105.098 E2.58606
G1 X113.143 Y105.098 E.01681
G1 X55.509 Y47.464 E2.56229
G1 X55.509 Y47.999 E.01681
G1 X112.609 Y105.098 E2.53852
G1 X112.074 Y105.098 E.01681
G1 X55.509 Y48.533 E2.51475
G1 X55.509 Y49.068 E.01681
G1 X111.539 Y105.098 E2.49098
G1 X111.005 Y105.098 E.01681
G1 X55.509 Y49.603 E2.46721
